common/assets/images/wallets/parity-signer.svg

<svg height="832" viewBox="0 0 832 832" width="832" xmlns="http://www.w3.org/2000/svg"><path d="m764.560113 405.346164-146.017133 90.49434v-39.732554h-121.28402l215.547074-133.585626zm12.061558 19.302528 54.707946 87.551015-511.517722 319.631747-55.887118-89.438085 308.750303-191.348468h45.8679v-28.426701zm-524.758452 298.442149-51.754079-82.82384 143.964311-89.2221h185.394478zm328.403269-612.676128 55.249436 88.41758-116.927889 72.466237h-197.91561zm-12.061558-19.3025282-290.739655 180.1863452h-62.588615v38.78939l-159.368621 98.768947-55.32789085-88.543135 511.51772185-319.63174658zm-500.6353329 337.0472092 147.3070629-91.293777v29.369864h150.52587l-145.013711 89.872469h-5.110369v3.167159l-92.459417 57.301865zm633.1748789-124.939597-82.603286 51.193511v-83.114778h-56.346005l85.782297-53.16371zm-512.696894 317.744676-53.166991-85.084971 80.397859-49.826696v64.992095h85.587851zm266.004227-164.856523h-190.455841l145.013711-89.872469h190.455845z"/></svg>

<svg width="832px" height="832px" viewBox="0 0 832 832" version="1.1" xmlns="http://www.w3.org/2000/svg" xmlns:xlink="http://www.w3.org/1999/xlink">
    <g id="Page-1" stroke="none" stroke-width="1" fill="none" fill-rule="evenodd">
        <g id="parity-signer" fill="#000000" fill-rule="nonzero">
            <path d="M764.560113,405.346164 L618.54298,495.840504 L618.54298,456.10795 L497.25896,456.10795 L712.806034,322.522324 L764.560113,405.346164 Z M776.621671,424.648692 L831.329617,512.199707 L319.811895,831.831454 L263.924777,742.393369 L572.67508,551.044901 L618.54298,551.044901 L618.54298,522.6182 L776.621671,424.648692 Z M251.863219,723.090841 L200.10914,640.267001 L344.073451,551.044901 L529.467929,551.044901 L251.863219,723.090841 Z M580.266488,110.414713 L635.515924,198.832293 L518.588035,271.29853 L320.672425,271.29853 L580.266488,110.414713 Z M568.20493,91.1121848 L277.465275,271.29853 L214.87666,271.29853 L214.87666,310.08792 L55.508039,408.856867 L0.180148145,320.313732 L511.69787,0.681985417 L568.20493,91.1121848 Z M67.5695971,428.159394 L214.87666,336.865617 L214.87666,366.235481 L365.40253,366.235481 L220.388819,456.10795 L215.27845,456.10795 L215.27845,459.275109 L122.819033,516.576974 L67.5695971,428.159394 Z M700.744476,303.219797 L618.14119,354.413308 L618.14119,271.29853 L561.795185,271.29853 L647.577482,218.13482 L700.744476,303.219797 Z M188.047582,620.964473 L134.880591,535.879502 L215.27845,486.052806 L215.27845,551.044901 L300.866301,551.044901 L188.047582,620.964473 Z M454.051809,456.10795 L263.595968,456.10795 L408.609679,366.235481 L599.065524,366.235481 L454.051809,456.10795 Z" id="Combined-Shape"></path>
        </g>
    </g>
</svg>
